X:1
T:Debussy - Préludes - Book I - II
T:Voiles
T:Claude Debussy
%%score { ( 1 4 5 7 ) | ( 2 3 6 8 ) }
L:1/8
M:2/4
K:C
V:1 treble nm="Piano"
V:4 treble 
V:5 treble 
V:7 treble 
V:2 bass 
V:3 bass 
V:6 bass 
V:8 bass 
V:1
 z2[Q:1/8=88]"^Modéré ( \n )\n(Dans un rythme sans rigueur et caressant.)" (!tenuto![e^g]-"^très doux"[eg]/4)[d^f]/4[ce]/4[_Bd]/4 | %1
!<(! [_Ac]7/4[^gc']/4!>(! [^f_b]2!<)!!>)! | %2
 z2!p! (!tenuto![e^g]-!>(![eg]/4)[d^f]/4[ce]/4[_Bd]/4!>)! | %3
"^più" [_Ac]2-!p!!>(! [Ac]/[^F_B]/[EA]/[DF]/!>)! | [CE]4- | [CE]2 z2 | %6
[K:bass] z!pp!"^expressif" (_A,_B,)[C,C]- | [C,C]2- [C,C] z | z (_A,_B,)[C,C]- | %9
 ([C,C]2[K:treble]"^très doux" (!tenuto![e^g-])[eg]/4)[d^f]/4[ce]/4[_Bd]/4 | [_Ac]2 z2 | %11
 (!tenuto![e^g]-[eg]/4)[d^f]/4[ce]/4[_Bd]/4 [_Ac]2- | %12
 [Ac]/!>(!.[^F_B]/.[E_A]/.[DF]/ !tenuto![CE]2-!>)! | !tenuto![CE]2 z2 | %14
!pp! (!tenuto![e^g]-[eg]/4)[d^f]/4[ce]/4[_Bd]/4 [_Ac]2- x | %15
!<(! [Ac]7/4[^gc']/4!>(! [^f_b]2!<)!!>)! | %16
!pp! (!tenuto![e^g]-[eg]/4)[d^f]/4[ce]/4[_Bd]/4 [_Ac]2- x- | %17
 ([Ac]7/4[_Bd]/4)!p! (!tenuto![Bd]7/4[ce]/4) |!p! (!tenuto![ce]7/4[d^f]/4) ([df]2- x) | %19
 [df][ce]!>(![d^f]>[e^g]!>)! | [e^g]4 | (.[d'd''] z) z"^très souple" (_A/4_B/4)A/4^F/4 | %22
!<(! _A/[Ec]/[^F_B]- [FB]/ z/!pp! (A/4B/4)A/4F/4!<)! | %23
!<(! _A/[Ec]/[^F_B]- [FB]/ z/!<(! (^G/4c/4)e/4^g/4x!<)!!<)! | %24
(x[d^f]/4)[ce]/4[_Bd]3/2- [Bd]!>(!(3([_Ac]/[Bd]/)[Ac]/!>)! | %25
{/_B} _A3"^Cédez   -         -               -              -//"!>(! (3(!tenuto![^FB]/!tenuto![FB]/)!tenuto![EA]/!>)! | %26
!pp!!>(!{/_B} _A4-!>)! |"^a Tempo" A2 z!p! (_A/4_B/4)A/4^F/4x | %28
x(._A/.c/) _B/4!<(!d/4c/4e/4._a!p! (A/4B/4)A/4^F/4!<)! | x _B/4!<(!d/4c/4e/4 _a-a/4_b/4a/4b/4!<)! | %30
!<(! (c'd'/8)_d'/8c'3/4!p! (c'=d'/8)_d'/8c'3/4!<)! | %31
"^Cédez   -           -              -                -//" !tenuto![_ac']4 | %32
!pp! (.d/.e/).d'/.e/ (.d/.e/).d'/.e/ | (.d/.e/).d'/.e/ (.d/.e/).d'/.e/ | %34
 (.d/.e/).d'/.e/ (.d/.e/).d'/.e/ | (.d/.e/)!>(!.d'/.e/ (.d/.e/).d'/.e/!>)! | %36
!pp! (.d/.e/).d'/.e/ (.d/.e/).d'/.e/ | ([_A,D^F]/[_B,F_B]/)[CF_A]-!<(! [CA]/c/B/d/!<)! | %38
!p! ([_A,D^F]/[_B,F_B]/)[CF_A]- [CA]/!<(!c/B/d/!<)! | %39
"^Serrez -             -               -               -  //"!<(! (_A/c/)_B/d/!<(! A/(c/B/)d/-!<)!!<)! | %40
"^Cédez -             -            -           -           -   //" d"^dim. molto" z[K:bass] (3x x _A,- | %41
[K:Db]!p! (A,/4B,/4)A,/4G,/4x[K:treble] (!>!d'/b/)!mf!!tenuto!A/4B/4A/4G/4 | %42
 !tenuto!A/4B/4A/4G/4 !tenuto!E2!8va(!!mf!"^Emporté   -          -            -    //      Cédez  -     -      //" ([aa']/4"^cresc.""^(rapide)""^molto"!<(![bb']/4)[aa']/4[gg']/4!<)!!8va)! | %43
 [Aa]/4[Bb]/4[dd']/4!f![ee']/4[ad'a']-"^molto"!>(! [ad'a']/[ee']/[dd']/[Bb]/!>)! | %44
"^Trés retenu  -                -               -                -                -               -  //"!p!!<(! ([Dd]/4e/4)[Ee]"^più"[Gg]/!p!!>(! ([Dd]/4e/4)[Ee]3/2!<)!!>)! | %45
!pp! ([Dd]/4e/4)!<(![Ee]"^più"[Bb]/!pp! ([Dd]/4!>(!e/4)[Ee]3/2-!<)!!>)! | [EGe]2 z2 || %47
[K:C]"^(comme un très\nléger glissando)""^au Mouvement" z ^F,.d/ z/ z | z _A,e/ z/ z | %49
 z"^doucement en dehors" (_a._b.c'- | c'2 d'2 | d'.e'.d'.c' | ._b/._a/!tenuto!b- (bd)) | %53
!pp! (.[_bc'^g'].[^f^ge'])!>(!.[_Bcg].[bc'g']- x!>)! | z ^F,d/ z/ z | %55
!pp!!8va(! (.[c'd'_b'].[_a_b^f'])!>(!.[cdb].[c'd'b']- x!8va)!!>)! | z _A,e/ z/ z | %57
"^più"!pp!"^Très apaisé et très atténué jusqu'à la fin" (.[_bc'^g'].[^f^ge']) (!tenuto![eg]-[eg]/4)[df]/4[ce]/4[_Bd]/4 | %58
 [_Ac]7/4[_ac']/4 [^f_b]2 | (.[_bc'^g'].[^f^ge']) (!tenuto![eg]-[eg]/4[df]/4[ce]/4[_Bd]/4 | %60
 [_Ac]2- [Ac]/[^F_B][EA]/ | %61
{/^F} !tenuto![CE]2){/!fermata!F} !breath!!tenuto!!fermata![CE]7/4(3(!breath!.!fermata![DF]/8.[DF]/8).[CE]/8 | %62
{/^F} !tenuto![CE]2 !breath!!tenuto!!fermata![CE]2- | !fermata![CE]4 |] %64
V:2
!p! z4 | z4 | z4 | z4 | z2!pp! (._B,,,2 | ._B,,,).B,,, z .B,,, | z"^toujours" (_A,,_B,,)!pp! z | %7
 (._B,,,.B,,,) z .B,,, | z (_A,,_B,,) z |!<(! z2 !tenuto![D,D]2-!<)! | %10
 [D,D][E,E]!>(![D,D][C,C]!>)! | [_B,,_B,]/[_A,,_A,]/ [B,,B,]2 [A,,A,] | [_A,,_A,]4 | [_A,,_A,]4 | %14
 z[K:treble] (.[_A,C_E_A].[_B,D^F_B]).[CEAc]- x |[K:bass] x4 | %16
 z[K:treble] (.[_A,CE_A].[_B,D^F_B]).[CEAc]- x |[K:bass]!<(! (._B,,,.B,,,) z!<(! .B,,,!<)!!<)! | %18
!<(! z[K:] (.[_A,CE_A].[_B,D_GB]).[CEAc]- x!<)! |[K:bass] (._B,,,.B,,,) z .B,,, | _B,,,4- | %21
!pp! B,,,4 | _B,,,4 | x4 x | x (D>C) (^F,>C) |(x>C) (^F,>C) |(x>C) (^F,>C) | (D>C) (^F,>x) x | %28
 x5[K:treble] |[K:bass] x4[K:treble] | (d/e).e/ (d/e).e/ | x4 | %32
[K:bass] z[K:treble] (.[_A,CE_A].[_B,D^F_B]).[CEAc]- | [CEAc]2 !tenuto![D^F_Bd]2- | %34
 [DFBd](.[E_Ace].[D^F_Bd]).[CEAc] | [_B,D^F_B]/[_A,CE_A]/ (([B,DFB]2 [A,CEA])) | %36
 !tenuto![_A,CE_A]4[K:bass] |!p! z3/2 (!tenuto!D,/ D)C/_B,/ | z3/2 (!tenuto!D,/ D)C/_B,/ | %39
 (D/C/)(3_B,/_A,/^F,/ (D/C/)(3B,/A,/F,/ | (D/C/)_B,/_A,/- (3(A,[I:staff -1]B,)A, | %41
[K:Db][I:staff +1] x (C,2 (A,/4)B,/4)A,/4G,/4 | x E,2[K:treble][K:bass] ([E,B,]/[G,D]/) | %43
 [B,E]/[DG]/x x2 | ([D,A,]<[E,G,]) ([D,A,]<[E,G,]) | ([D,A,]<[E,G,]) ([D,A,]<[E,G,]-) | %46
 [E,G,]2 z2 ||[K:C] z!pp! (11:4:6(^F,3/4^G,/4) _B,/4C/4D/4 x x2 | %48
 z (11:4:6(_A,3/4_B,/4) C/4D/4E/4 x x2 | %49
 z (12:4:10(^F,3/4^G,/4) _B,/4C/4D/4[I:staff -1] ^F/4^G/4_B/4c/4d/4[I:staff +1] x2 | %50
 z (12:4:10(_A,3/4_B,/4) C/4D/4E/4[I:staff -1] _A/4_B/4c/4d/4e/4[I:staff +1] x2 | %51
 z (12:4:10(^F,3/4^G,/4) _B,/4C/4D/4[I:staff -1] ^F/4^G/4_B/4c/4d/4[I:staff +1] x2 | %52
 z (12:4:10(_A,3/4_B,/4) C/4D/4E/4[I:staff -1] _A/4_B/4c/4d/4e/4[I:staff +1] x2 | %53
 z (.[C,^F,_B,].[E,B,D]).[F,CE]- x | z (11:4:6(^F,3/4^G,/4) _B,/4C/4D/4 x x2 | %55
 z (.[D,_A,C].[^F,CE]).[A,D^F]- x | z (11:4:6(_A,3/4_B,/4) C/4D/4E/4 x x2 | %57
 z (.[C,^F,_B,].[E,B,D]).[F,CE] | z (.[D,_A,C].[^F,CE]).[A,D^F] | z (.[C,^F,_B,].[E,B,D]).[F,CE] | %60
 z (.[D,_A,C].[^F,CE]) z | %61
 (13:8:11F,3/4^G,/4 _B,/4C/4D/4E/4[I:staff -1] ^F/4^G/4_B/4c/4d/4[I:staff +1] (13:8:11^F,3/4^A,/4 B,/4C/4D/4E/4[I:staff -1] F/4G/4B/4c/4d/4 | %62
[I:staff +1] (13:8:11F,3/4^G,/4_B,/4C/4D/4E/4[I:staff -1] ^F/4^G/4_B/4c/4d/4[I:staff +1] z2 | %63
 !fermata!z4 |] %64
V:3
 x4 | x4 | x4 | x4 | x4 | x4 | ._B,,,2 z2 | x4 | ._B,,,2 z2 | (._B,,,.B,,,) z .B,,, | ._B,,,2 z2 | %11
 x4 | z (._B,,,2 .B,,,) | z (._B,,,2 .B,,,) | ._B,,,2[K:treble] x2 x | %15
[K:bass] (._B,,,.B,,,) z .B,,, | ._B,,,[K:treble] x x2 x |[K:bass] x4 | ._B,,,2[K:] x x x | %19
[K:bass] x4 | x4 | x4 | x4 | _B,,,4- x | x _B,,,4 | _B,,,4 | _B,,,4- | B,,,4 x | %28
 x3/2[K:treble] x7/2 |[K:bass] x[K:treble] x ._B/.c/.d/.e/ | x4 | %31
 (.d/.e/)[I:staff -1].d'/.e/"^dim."[I:staff +1] (.d/.e/)[I:staff -1].d'/.e/ | %32
[I:staff +1][K:bass] (_B,,,4[K:treble] | _G,4) | (_G,4 | _G,4) | x2[K:bass] _B,,,2- | B,,,4 | %38
 _B,,,4- | B,,,4- | B,,,4 |[K:Db] B,,,4 | B,,,4[K:treble][K:bass] | x4 | z .B,,, z .B,,, | %45
 z .B,,, z .B,,, | z .B,,, z .B,,, ||[K:C] !tenuto!_B,,,3 ._B,, | !tenuto!_B,,,3 ._B,, | %49
 !tenuto!_B,,,3 ._B,, | !tenuto!_B,,,3 ._B,, | !tenuto!_B,,,3 ._B,, | !tenuto!_B,,,3 ._B,, | %53
 !tenuto!_B,,,4 x | _B,,,3 ._B,, | _B,,,4 x | _B,,,3 ._B,, | !tenuto!_B,,,2 x2 | %58
 !tenuto!_B,,,2 x2 | !tenuto!_B,,,2 x2 | !tenuto!_B,,,2 x2 | (^F,2 (F,2) | (^F,2) x2) | x4 |] %64
V:4
 x4 | x4 | x4 | x4 | x4 | x4 |[K:bass] x4 | x4 | x4 | z2[K:treble] x2 | x4 | x4 | x4 | x4 | x5 | %15
 x4 | x5 | x4 | x5 | x4 | z2!pp! (.D z) | (.d z) !tenuto!D2- | (D>x)[I:staff +1] (^F,>C) | %23
[I:staff -1] (D>x)[I:staff +1] (^F,>C) x | x5 | x4 |[I:staff -1] D3 x | x5 | %28
 x D/E/[I:staff +1] .^F/.^G/[I:staff -1] x2 | .[D_A]/.[Ec]/[I:staff +1].^F/.^G/[I:staff -1] x2 | %30
 (^f/4g/<)_a/ x/4 x/ (f/4!<(!g/<)a/ x/4 x/!<)! | x4 | %32
 z (!tenuto![x_a]!tenuto![x_b])!tenuto![xc'-] | c'2 !tenuto!d'2- | %34
 ([xd']!tenuto![xe'])!tenuto![xd']!tenuto![xc'] | _b/_a/ (!tenuto!b2 a) | _a4 | x2 ^F2 | x2 ^F2 | %39
 !tenuto!^F2 [F_A]2- | [FA] z[K:bass] x2 |[K:Db] x65/48[K:treble] x127/48 | %42
 x2!8va(! !>!d''/b'/ e'/d'/!8va)! | e/g/ [EAd]- [EAd]2 | A<x A<x | A<x A<x- | G2 z2 || %47
[K:C] x (11:4:6x x3/4 ^F/4^G/4_B/4c/4 x2 | x (11:4:6x x3/4 _A/4_B/4c/4d/4 x2 | %49
 x (11:4:3x x3/4 x x2 | x!<(! (11:4:3x x3/4 x x2!<)! | x (11:4:3x x3/4 x x2 | x3 _a- | a4 x | %54
 x (11:4:6x x3/4 ^F/4^G/4_B/4c/4 x2 |!8va(! x5!8va)! | x (11:4:6x x3/4 _A/4_B/4c/4d/4 x2 | z2 z2 | %58
 x4 | z2 z2 | x4 |{D} C2 x2 |{D} C2 x2 | x4 |] %64
V:5
 x4 | x4 | x4 | x4 | x4 | x4 |[K:bass] x4 | x4 | x4 | x2[K:treble] x2 | x4 | x4 | x4 | x4 | x5 | %15
 x4 | x5 | x4 | x5 | x4 | x2 (.[dd'] z) | x4 | x4 | x5 | x5 |{^F} E3 x |{^F} E4- | E2x>C x | x5 | %29
 x4 | x4 | x4 | x4 | x4 | x4 | x4 | x4 | x4 | x4 | x2 !tenuto!^F2 | %40
 x2[K:bass][I:staff +1] (3A,[I:staff -1]_B,_A, |[K:Db] x65/48[K:treble] x127/48 | %42
 x2!8va(! x2!8va)! | x4 | x/ G3/2 x/ G3/2 | x/ G3/2 x/ G3/2 | x4 ||[K:C] x4 | x4 | x4 | x4 | x4 | %52
 x4 | x5 | x4 |!8va(! x5!8va)! | x4 | x4 | x4 | x4 | x4 | x4 | x4 | x4 |] %64
V:6
 x4 | x4 | x4 | x4 | x4 | x4 | x4 | x4 | x4 | x4 | x4 | x4 | x4 | x4 | x[K:treble] x4 | %15
[K:bass] x4 | x[K:treble] x4 |[K:bass] x4 | x[K:] x4 |[K:bass] x4 | x4 | x4 |x>C x2 |x>C x2 x | %24
 x5 | x4 | x4 | x5 | x x[K:treble] x ._B/.c/.d/.e/ |[K:bass] x[K:treble] x3 | x4 | x4 | %32
[K:bass] x[K:treble] x3 | x4 | x4 | x4 | x2[K:bass] x2 | x4 | x4 | xx xx | x4 | %41
[K:Db] x (14:4:14E,/4G,/4A,/4C/4D/4[I:staff -1]E/4G/4A/4B/4d/4 e/4g/4a/4b/4 x2 | %42
 (A,/4B,/4)A,/4G,/4 (19:2:22(E,15/64G,15/64)A,15/64B,15/64D15/64[I:staff -1] E15/64G15/64A15/64B15/64d15/64[I:staff +1][K:treble][I:staff +1] e15/64g15/64a15/64b15/64d'15/64[I:staff -1] e15/64g15/64a15/64b15/64[I:staff +1] x19/40 x4 x15/64 x[K:bass] x | %43
 x4 | x4 | x4 | x4 ||[K:C] x xx x | x xx x | x xx x | x xx x | x xx x | x xx x | x5 | x xx x | x5 | %56
 x xx x | x4 | x4 | x4 | x4 | xx xx | x xx x | x4 |] %64
V:7
 x4 | x4 | x4 | x4 | x4 | x4 |[K:bass] x4 | x4 | x4 | x2[K:treble] x2 | x4 | x4 | x4 | x4 | x5 | %15
 x4 | x5 | x4 | x5 | x4 | x4 | x4 | x4 | x5 | x5 | D>x x2 | x4 | x5 | x2 (_B z) x | x (_B z2) | %30
 x4 | x4 | x4 | x4 | x4 | x4 | x4 | x4 | x4 | x4 | x2[K:bass] x2 |[K:Db] x65/48[K:treble] x127/48 | %42
 x2!8va(! x2!8va)! | x [EAd]2 x | x2 x/ x3/2 | x4 | x4 ||[K:C] x4 | x4 | x4 | x4 | x4 | x4 | x5 | %54
 x4 |!8va(! x5!8va)! | x4 | x4 | x4 | x4 | x4 | x4 | x4 | x4 |] %64
V:8
 x4 | x4 | x4 | x4 | x4 | x4 | x4 | x4 | x4 | x4 | x4 | x4 | x4 | x4 | x[K:treble] x4 | %15
[K:bass] x4 | x[K:treble] x4 |[K:bass] x4 | x[K:] x4 |[K:bass] x4 | x4 | x4 | x4 | x5 | x5 | x4 | %26
 x4 | x5 | x _B,,,4[K:treble] |[K:bass] _B,,,4[K:treble] | x4 | x4 |[K:bass] x[K:treble] x3 | x4 | %34
 x4 | x4 | x2[K:bass] x2 | x4 | x4 | x4 | x4 |[K:Db] x E,- E,2 | x x[K:treble][K:bass]x x | x4 | %44
 x4 | x4 | x4 ||[K:C] x4 | x4 | x4 | x4 | x4 | x4 | x5 | x4 | x5 | x4 | x4 | x4 | x4 | x4 | x4 | %62
 x4 | x4 |] %64

